inst/assets/svg/wi-direction-up-right.svg

<?xml version="1.0" encoding="UTF-8"?>
<svg xmlns="http://www.w3.org/2000/svg" xmlns:xlink="http://www.w3.org/1999/xlink" width="30pt" height="30pt" viewBox="0 0 30 30" version="1.1">
<g id="surface211">
<path style=" stroke:none;fill-rule:nonzero;fill:rgb(0%,0%,0%);fill-opacity:1;" d="M 10.050781 17.550781 C 10.050781 17.851563 10.140625 18.101563 10.308594 18.28125 C 10.511719 18.46875 10.769531 18.558594 11.101563 18.558594 C 11.398438 18.558594 11.648438 18.46875 11.828125 18.28125 L 17.871094 12.230469 L 17.871094 14.179688 C 17.871094 14.480469 17.96875 14.730469 18.171875 14.929688 C 18.371094 15.128906 18.621094 15.230469 18.921875 15.230469 C 19.210938 15.230469 19.460938 15.128906 19.660156 14.921875 C 19.859375 14.710938 19.960938 14.46875 19.960938 14.171875 L 19.960938 9.699219 C 19.960938 9.398438 19.859375 9.148438 19.660156 8.949219 C 19.460938 8.75 19.210938 8.648438 18.921875 8.648438 L 14.421875 8.648438 C 14.128906 8.648438 13.878906 8.75 13.691406 8.949219 C 13.5 9.148438 13.398438 9.390625 13.398438 9.699219 C 13.398438 9.988281 13.5 10.238281 13.691406 10.429688 C 13.878906 10.621094 14.128906 10.71875 14.421875 10.71875 L 16.371094 10.71875 L 10.308594 16.78125 C 10.140625 16.988281 10.050781 17.25 10.050781 17.550781 Z M 10.050781 17.550781 "/>
</g>
</svg>

<?xml version="1.0" encoding="utf-8"?>
<!-- Generator: Adobe Illustrator 22.0.1, SVG Export Plug-In . SVG Version: 6.00 Build 0)  -->
<svg version="1.1" id="Layer_1" xmlns="http://www.w3.org/2000/svg" xmlns:xlink="http://www.w3.org/1999/xlink" x="0px" y="0px"
	 viewBox="0 0 30 30" style="enable-background:new 0 0 30 30;" xml:space="preserve">
<path d="M10.05,17.55c0,0.3,0.09,0.55,0.26,0.73c0.2,0.19,0.46,0.28,0.79,0.28c0.3,0,0.55-0.09,0.73-0.28l6.04-6.05v1.95
	c0,0.3,0.1,0.55,0.3,0.75c0.2,0.2,0.45,0.3,0.75,0.3c0.29,0,0.54-0.1,0.74-0.31s0.3-0.45,0.3-0.75V9.7c0-0.3-0.1-0.55-0.3-0.75
	s-0.45-0.3-0.74-0.3h-4.5c-0.29,0-0.54,0.1-0.73,0.3S13.4,9.39,13.4,9.7c0,0.29,0.1,0.54,0.29,0.73s0.44,0.29,0.73,0.29h1.95
	l-6.06,6.06C10.14,16.99,10.05,17.25,10.05,17.55z"/>
</svg>
